resources/svg/crypta_logo.svg

<?xml version="1.0" encoding="UTF-8" standalone="no"?>
<!-- Created with Inkscape (http://www.inkscape.org/) -->

<svg
   width="256"
   height="256"
   viewBox="0 0 67.733334 67.733333"
   version="1.1"
   id="svg1"
   inkscape:version="1.4.2 (ebf0e940, 2025-05-08)"
   sodipodi:docname="crypta_logo.svg"
   xmlns:inkscape="http://www.inkscape.org/namespaces/inkscape"
   xmlns:sodipodi="http://sodipodi.sourceforge.net/DTD/sodipodi-0.dtd"
   xmlns="http://www.w3.org/2000/svg"
   xmlns:svg="http://www.w3.org/2000/svg">
  <sodipodi:namedview
     id="namedview1"
     pagecolor="#ffffff"
     bordercolor="#000000"
     borderopacity="0.25"
     inkscape:showpageshadow="2"
     inkscape:pageopacity="0.0"
     inkscape:pagecheckerboard="0"
     inkscape:deskcolor="#d1d1d1"
     inkscape:document-units="mm"
     inkscape:zoom="1.6687788"
     inkscape:cx="81.796343"
     inkscape:cy="51.834313"
     inkscape:window-width="2560"
     inkscape:window-height="1412"
     inkscape:window-x="1496"
     inkscape:window-y="0"
     inkscape:window-maximized="1"
     inkscape:current-layer="layer1" />
  <defs
     id="defs1" />
  <g
     inkscape:label="Layer 1"
     inkscape:groupmode="layer"
     id="layer1">
    <path
       style="display:inline;fill:#ec6224;stroke-width:0.681392"
       d="M 30.087984,64.05222 C 23.61851,60.250575 7.0107054,50.293601 6.4153959,49.859648 L 5.8178355,49.424058 V 33.536229 17.648401 l 0.6355934,-0.498999 c 0.3495774,-0.27445 2.0664143,-1.32808 3.8151931,-2.341401 1.748782,-1.013321 7.677528,-4.453792 13.174995,-7.6454932 11.661294,-6.77027347 9.842501,-6.2812304 14.125815,-3.7982 1.902181,1.1026903 7.554095,4.3780272 12.559811,7.2785272 12.414767,7.193578 11.534202,6.624306 11.671381,7.54538 0.270082,1.813501 0.01643,31.052844 -0.271767,31.323107 -1.065751,0.999532 -27.148072,16.551556 -27.745334,16.543618 -0.16172,-0.002 -1.824713,-0.903377 -3.695539,-2.00272 z m 5.216094,-4.302263 c 5.216717,-3.017854 21.314151,-12.778915 21.487448,-13.029416 0.359985,-0.520366 0.155272,-5.631781 -0.221764,-5.536988 -0.199362,0.05011 -5.319949,2.962922 -11.379089,6.472884 -13.273387,7.689069 -8.713503,8.125493 -27.29321,-2.612231 -8.1403138,-4.704507 -7.299828,-4.564574 -7.296329,-1.214742 0.0033,3.290796 -0.8979418,2.36606 6.800181,6.976387 17.922219,10.733441 16.252057,9.899035 17.902763,8.944106 z M 31.375036,39.733171 V 32.499127 L 30.685548,32.287351 C 21.516321,29.471017 22.0478,16.477624 31.419113,14.353319 c 11.30587,-2.56283 16.875222,12.521462 6.437159,17.434678 l -1.516889,0.713996 V 39.7346 c 0,3.977936 0.06887,7.232613 0.153007,7.232613 0.200865,0 19.699075,-11.266484 20.120059,-11.6258 0.300856,-0.256788 0.320345,-0.801462 0.275802,-7.708177 L 56.840279,20.201368 45.261013,13.505991 33.68176,6.8106151 33.125948,7.1215665 C 32.169482,7.6566621 13.708708,18.400566 12.161143,19.322775 l -1.470918,0.876537 -0.04794,7.438788 c -0.04222,6.55126 -0.01383,7.466008 0.238024,7.66696 0.555484,0.443234 20.038319,11.648924 20.26487,11.655492 0.180234,0.0054 0.229836,-1.554451 0.229836,-7.227381 z m 4.886851,-12.304682 c 4.424156,-2.618015 2.207227,-9.099845 -2.975555,-8.699863 -3.91489,0.30213 -5.827952,4.834473 -3.258682,7.720333 1.507429,1.693173 4.289544,2.130306 6.234237,0.97953 z"
       id="path3"
       sodipodi:nodetypes="sscccssssssscsssssscssccssscsssscccsscsscscssss"
       inkscape:label="logo" />
  </g>
</svg>

<?xml version="1.0" encoding="UTF-8" standalone="no"?>
<!DOCTYPE svg PUBLIC "-//W3C//DTD SVG 1.1//EN" "http://www.w3.org/Graphics/SVG/1.1/DTD/svg11.dtd">
<svg width="100%" height="100%" viewBox="0 0 256 256" version="1.1" xmlns="http://www.w3.org/2000/svg" xmlns:xlink="http://www.w3.org/1999/xlink" xml:space="preserve" xmlns:serif="http://www.serif.com/" style="fill-rule:evenodd;clip-rule:evenodd;stroke-linejoin:round;stroke-miterlimit:2;">
    <g id="Layer-1" serif:id="Layer 1" transform="matrix(3.9766,0,0,3.9766,-6.67429,-6.67429)">
        <path id="logo" d="M30.088,64.052C23.619,60.251 7.011,50.294 6.415,49.86L5.818,49.424L5.818,17.648L6.453,17.149C6.803,16.875 8.52,15.821 10.269,14.808C12.017,13.795 17.946,10.354 23.444,7.163C35.105,0.392 33.286,0.881 37.569,3.364C39.472,4.467 45.124,7.742 50.129,10.643C62.544,17.836 61.663,17.267 61.801,18.188C62.071,20.002 61.817,49.241 61.529,49.511C60.463,50.511 34.381,66.063 33.784,66.055C33.622,66.053 31.959,65.152 30.088,64.052ZM35.304,59.75C40.521,56.732 56.618,46.971 56.792,46.721C57.152,46.2 56.947,41.089 56.57,41.184C56.37,41.234 51.25,44.146 45.191,47.656C31.917,55.346 36.477,55.782 17.897,45.044C9.757,40.34 10.598,40.48 10.601,43.829C10.604,47.12 9.703,46.196 17.401,50.806C35.324,61.539 33.653,60.705 35.304,59.75ZM31.375,39.733L31.375,32.499L30.686,32.287C21.516,29.471 22.048,16.478 31.419,14.353C42.725,11.79 48.294,26.875 37.856,31.788L36.339,32.502L36.339,39.735C36.339,43.713 36.408,46.967 36.492,46.967C36.693,46.967 56.191,35.701 56.612,35.341C56.913,35.085 56.933,34.54 56.888,27.633L56.84,20.201L45.261,13.506L33.682,6.811L33.126,7.122C32.169,7.657 13.709,18.401 12.161,19.323L10.69,20.199L10.642,27.638C10.6,34.189 10.628,35.104 10.88,35.305C11.436,35.748 30.919,46.954 31.145,46.961C31.325,46.966 31.375,45.406 31.375,39.733L31.375,39.733ZM36.262,27.428C40.686,24.81 38.469,18.329 33.286,18.729C29.371,19.031 27.458,23.563 30.028,26.449C31.535,28.142 34.317,28.579 36.262,27.428Z" style="fill:rgb(236,98,36);fill-rule:nonzero;"/>
    </g>
</svg>
